icons/cacheTypes/multi-active-found.svg

<svg xmlns="http://www.w3.org/2000/svg" viewBox="0 0 32 32"><defs><style>.cls-2{fill:#fff}</style></defs><g id="Ebene_2" data-name="Ebene 2"><path id="aktiv_mit_Ecke" d="M16 32H6a6.018 6.018 0 0 1-6-6V6a6.018 6.018 0 0 1 6-6h20a6.018 6.018 0 0 1 6 6v10.011Z" data-name="aktiv mit Ecke" style="fill:#f48939"/><g id="Icons"><path d="M20.306 17.876v.918H3.449v-.918a2.763 2.763 0 0 1 2.757-2.755H17.55a2.763 2.763 0 0 1 2.756 2.755ZM18.808 20.129v5.344a2.763 2.763 0 0 1-2.756 2.755H7.7a2.763 2.763 0 0 1-2.757-2.755v-5.344Z" class="cls-2"/><path d="M13.192 13.122h4.358a4.76 4.76 0 0 1 4.756 4.754v.224H24.3a2.763 2.763 0 0 0 2.757-2.754v-5.341H13.192ZM25.794 5H14.45a2.763 2.763 0 0 0-2.756 2.755v.915h16.857v-.918A2.764 2.764 0 0 0 25.794 5Z" class="cls-2"/></g><path id="Ecke" d="M16 16v16h10a6.018 6.018 0 0 0 6-6V16Z" class="cls-2"/><path id="Found" d="M29.866 21.262a.7.7 0 0 1-.212.514l-5.48 5.477-1.029 1.028a.732.732 0 0 1-1.03 0l-1.029-1.028-2.74-2.739a.729.729 0 0 1 0-1.028l1.029-1.029a.732.732 0 0 1 1.03 0l2.225 2.231 4.97-4.969a.732.732 0 0 1 1.03 0l1.029 1.028a.7.7 0 0 1 .207.515Z" style="fill:#51b70f"/></g></svg>

<svg xmlns="http://www.w3.org/2000/svg" viewBox="0 0 32 32"><defs><style>.cls-1{fill:#f48939;}.cls-2{fill:#fff;}.cls-3{fill:#51b70f;}</style></defs><g id="Ebene_2" data-name="Ebene 2"><g id="aktiv_mit_Ecke" data-name="aktiv mit Ecke"><path class="cls-1" d="M16,32H6a6.018,6.018,0,0,1-6-6V6A6.018,6.018,0,0,1,6,0H26a6.018,6.018,0,0,1,6,6V16.011Z"/></g><g id="Icons"><path class="cls-2" d="M20.306,17.876v.918H3.449v-.918a2.763,2.763,0,0,1,2.757-2.755H17.55A2.763,2.763,0,0,1,20.306,17.876Z"/><path class="cls-2" d="M18.808,20.129v5.344a2.763,2.763,0,0,1-2.756,2.755H7.7a2.763,2.763,0,0,1-2.757-2.755V20.129Z"/><path class="cls-2" d="M13.192,13.122H17.55a4.76,4.76,0,0,1,4.756,4.754V18.1H24.3a2.763,2.763,0,0,0,2.757-2.754V10.005H13.192ZM25.794,5H14.45a2.763,2.763,0,0,0-2.756,2.755V8.67H28.551V7.752A2.764,2.764,0,0,0,25.794,5Z"/></g><g id="Ecke"><path class="cls-2" d="M16,16V32H26a6.018,6.018,0,0,0,6-6V16Z"/></g><g id="Found"><path class="cls-3" d="M29.866,21.262a.7.7,0,0,1-.212.514l-5.48,5.477-1.029,1.028a.732.732,0,0,1-1.03,0l-1.029-1.028-2.74-2.739a.729.729,0,0,1,0-1.028l1.029-1.029a.732.732,0,0,1,1.03,0l2.225,2.231L27.6,19.719a.732.732,0,0,1,1.03,0l1.029,1.028A.7.7,0,0,1,29.866,21.262Z"/></g></g></svg>
